X:1
T:May We Dwell in That Peaceful Clime
T:May We Dwell in That Peaceful Clime
T:Mary W. Ehlers
T:Mary W. Ehlers, 1872
T:Public Domain Courtesy of the Cyber Hymnal™
T:Public Domain Courtesy of the Cyber Hymnal™
C:Mary W. Ehlers
Z:Public Domain
Z:Courtesy of the Cyber Hymnal™
%%score 1 ( 2 3 )
L:1/8
Q:1/4=115
M:4/4
K:C
V:1 treble 
V:2 bass 
V:3 bass 
V:1
 [CE]3 [DF] [EG]3 [EG] | [Ec]6 [EG][EG] | [FA]6 [Fc]2 | [EG]6 ([CE][CE]) | ([B,D]4 [CE]2) [DF]2 | %5
w: 1.~There are gates of|pearl, and a|crys- tal|sea, And *|streets * of|
w: 2.~There’s a robe of|white, and a|crown of|gold; There~are *|joys * un-|
w: 3.~There the ran- somed|dwell i- n|glor- ious|light, Where *|comes * no|
 ([CE]2 [DG]2) [EG]2 [Gc]2 | ([FA]2 [EG]2) ([EG]2 [CE]2) | [DG]6 [EG][EG] | ([Ec]4 [GB]2) [FA]2 | %9
w: gold, * we may|wan- * der *|free; There’s a|home * of|
w: fad~ing, * and plea-|sures * un- *|told; There’s a|sound * of|
w: pain, * wh- ere|comes * no *|night; There the|wea- * ry|
 [EG]6 [CE]2 | [B,D]4 [CE]2 [EG]2 | [FA]6 [FA]2 | [Ac]4 [GB]2 [FA]2 | [EG]6 [Ec]2 | %14
w: joy, and|ra- di- ance|fair, That|beau- ti- ful|home, oh,|
w: harp and|heav- en- ly|song, O|m- ay we|join that|
w: rest, all|wan- der- ings|cease; O|may we share|in that|
 ([DB]4 [CA]2) [DB]2 | [Ec]6 ||"^Refrain" [Ec][Ec] | [Fd]6 [Ec][GB] | [Fc]3 [FA] [EG]3 [Ec] | %19
w: may * we|share.|May we|dwell in that|peace- ful clime, And|
w: glor- * ious|throng.||||
w: per- * fect|peace.||||
 [Ge]6 [Gd][Ec] | [^Fd]3 [Fe] !fermata![Gd]3 [EG] | [Ec]2 [Ec][Ec] [Ge]2 [Fd][Ec] | %22
w: sing on that|gold- en shore, The|prais- es of Je- sus, our|
w: |||
w: |||
 ([GB]2 [FA]2) [Ac]3 [FA] | [EG]2 [EG][EG] [DB]2 ([CA][DB]) | [Ec]8 |] %25
w: Sav- * ior, Who|lov- eth us ev- er- *|more.|
w: |||
w: |||
V:2
 [C,C]3 [C,C] [C,C]3 [C,C] | [C,G,]6 [C,C][C,C] | [F,C]6 [A,C]2 | C6 [C,G,][C,G,] | %4
w: ~ ~ ~ ~|~ ~ ~|~ ~|~ ~ ~|
 [G,,G,]6 [G,,G,]2 | ([C,G,]2 [C,C]2) [C,C]2 [C,E]2 | ([C,C]2 [C,C]2) ([C,C]2 [C,C]2) | %7
w: ~ ~|~ * ~ ~|~ * ~ *|
 [G,B,]6 [C,C][C,C] | [C,C]6 [C,C]2 | [C,C]6 [C,G,]2 | [G,,G,]4 [C,G,]2 [C,C]2 | [F,C]6 [F,C]2 | %12
w: ~ ~ ~|~ ~|~ ~|~ ~ ~|~ ~|
 [F,C]4 [F,C]2 [F,C]2 | [C,C]6 [F,A,]2 | G,6 [G,,G,]2 | [C,G,]6 || z2 | %17
w: ~ ~ ~|~ ~|~ ~|~||
 z2 [G,B,][G,B,] [G,B,]2 [C,C][C,G,] | [F,A,]3 [F,C] [C,C]3 z | z2 C2 C2 [G,B,][E,C] | %20
w: May we dwell ~ ~|~ ~ ~|And sing * *|
 [D,C]3 [D,C] !fermata![G,,B,]3 [C,C] | [C,G,]2 [C,G,][C,G,] [C,C]2 [D,B,][E,C] | %22
w: ||
 [F,C]4 [F,C]3 [F,C] | [G,C]2 [G,C]G, [G,,G,]2 [G,,G,]2 | [C,G,]8 |] %25
w: |||
V:3
 x8 | x8 | x8 | x8 | x8 | x8 | x8 | x8 | x8 | x8 | x8 | x8 | x8 | x8 | G,6 x2 | x6 || x2 | x8 | %18
 x8 | x2 C2 C2 x2 | x8 | x8 | x8 | x3 G, x4 | x8 |] %25

